static/img/field.svg

<?xml version="1.0" encoding="UTF-8"?>
<svg width="182px" height="92px" viewBox="0 0 182 92" version="1.1" xmlns="http://www.w3.org/2000/svg" xmlns:xlink="http://www.w3.org/1999/xlink">
    <!-- Generator: Sketch 51.2 (57519) - http://www.bohemiancoding.com/sketch -->
    <title>field</title>
    <desc>Created with Sketch.</desc>
    <defs></defs>
    <g id="Page-2" stroke="none" stroke-width="1" fill="none" fill-rule="evenodd">
        <g id="field" transform="translate(1.000000, 1.000000)">
            <rect id="Rectangle-path" stroke="#CCCCCC" x="0.0628697294" y="0.140465702" width="179.908244" height="89.9150409"></rect>
            <rect id="Rectangle-path" stroke="#CCCCCC" x="0.0226557583" y="23.1185022" width="25.9753933" height="43.9584015"></rect>
            <ellipse id="Oval" stroke="#CCCCCC" cx="90.0169918" cy="45.0979862" rx="14.9862177" ry="14.9856514"></ellipse>
            <path d="M121.179421,50.0771554 L122.606167,50.0771554 L125.305035,46.0631215 L127.990875,50.0771554 L129.487288,50.0771554 L126.046444,45.0419132 L129.179736,40.2864695 L127.752989,40.2864695 L125.333354,44.0767778 L122.941473,40.2864695 L121.4309,40.2864695 L124.591945,45.0979862 L121.179421,50.0771554 Z M131.781183,49.070107 L134.452297,46.3010069 C135.920957,44.8323474 136.536627,43.9368785 136.536627,42.7344242 C136.536627,41.0278792 135.291693,40.1188169 133.585148,40.1188169 C131.83669,40.1188169 130.494336,41.1536186 130.340277,43.4894273 L131.529138,43.5874135 C131.654877,41.867275 132.46652,41.1258653 133.585148,41.1258653 C134.564443,41.1258653 135.305853,41.6435494 135.305853,42.7344242 C135.305853,43.8111391 134.49421,44.6222152 133.347262,45.8110761 L130.116551,49.1539333 L130.116551,50.0771554 L136.773946,50.0771554 L136.773946,49.070107 L131.781183,49.070107 Z" id="Shape" fill="#CCCCCC" fill-rule="nonzero"></path>
            <rect id="Rectangle-path" stroke="#CCCCCC" x="0.102517306" y="0.140465702" width="89.9144745" height="89.9144745"></rect>
            <rect id="Rectangle-path" stroke="#CCCCCC" x="153.910195" y="23.1185022" width="25.9753933" height="43.9584015"></rect>
            <path d="M10.0931403,0.0147262429 C10.0931403,5.53253619 5.62032725,10.0053493 0.102517306,10.0053493" id="Shape" stroke="#CCCCCC"></path>
            <path d="M179.931466,10.1305223 C174.413656,10.1305223 169.940843,5.65827565 169.940843,0.140465702" id="Shape" stroke="#CCCCCC"></path>
            <path d="M0.102517306,80.0648836 C5.62032725,80.0648836 10.0931403,84.5371303 10.0931403,90.0549402" id="Shape" stroke="#CCCCCC"></path>
            <path d="M169.940843,90.0549402 C169.940843,84.5371303 174.413656,80.0648836 179.931466,80.0648836" id="Shape" stroke="#CCCCCC"></path>
        </g>
    </g>
</svg>

<svg width="182" height="92" viewBox="0 0 182 92" xmlns="http://www.w3.org/2000/svg"><title>field</title><desc>Created with Sketch.</desc><g transform="translate(1 1)" fill="none"><path id="Rectangle-path" stroke="#ccc" d="M.063.14h179.908v89.915h-179.908zM.023 23.119h25.975v43.958h-25.975z"/><ellipse stroke="#ccc" cx="90.017" cy="45.098" rx="14.986" ry="14.986"/><path d="M121.179 50.077h1.427l2.699-4.014 2.686 4.014h1.496l-3.441-5.035 3.133-4.755h-1.427l-2.42 3.79-2.392-3.79h-1.511l3.161 4.812-3.413 4.979zm10.602-1.007l2.671-2.769c1.469-1.469 2.084-2.364 2.084-3.567 0-1.707-1.245-2.616-2.951-2.616-1.748 0-3.091 1.035-3.245 3.371l1.189.098c.126-1.72.937-2.462 2.056-2.462.979 0 1.721.518 1.721 1.609 0 1.077-.812 1.888-1.959 3.077l-3.231 3.343v.923h6.657v-1.007h-4.993z" id="Shape" fill="#ccc" fill-rule="nonzero"/><path stroke="#ccc" d="M.103.14h89.914v89.914h-89.914zM153.91 23.119h25.975v43.958h-25.975z"/><path d="M10.093.015c0 5.518-4.473 9.991-9.991 9.991M179.931 10.131c-5.518 0-9.991-4.472-9.991-9.99M.103 80.065c5.518 0 9.991 4.472 9.991 9.99M169.941 90.055c0-5.518 4.473-9.99 9.991-9.99" stroke="#ccc"/></g></svg>
